!!!OTL: Mantle So Green
!!!ONM: 30.
**kern
*clefG2
!Modal -- Conklin/Pearce 
*k[]
*d:
*M6/8
*MM84
{8g
=1
(4a
8g)
4e
8g
=2
(8a
4g)
4e
8G
=3
8G
4c
4c
8c
=4
[4.c
4c]}
{8g
=5
8e
8.g
16cc
8cc
8.dd
16cc
=6
8g
8.g
16e
4g}
{16a
16g
=7
8e
8.cc
16dd
8cc
8cc
16a
16g
=8
8e
8.e
16g
4a}
{16e
16g
=9
8.a
16e
8g
(16a
16g)
8e
8c
=10
8A
8.d
16d
4.d}
==
*-
!!!CNT: Folksongs of Maritime Canada
!!!MRD: 1928///-1932///
!!!OCL: Helen Creighton
!!!YOR: Songs and Ballads from Nova Scotia
!!!PPR: J.M. Dent & Sons, Limited
!!!PPP: Toronto, Canada
!!!PDT: 1932///
!!!reprint: Dover Publications, 1992: ISBN 0-486-21703-5
!!!ENC1: Craig Stuart Sapp (music and bibliographic data)                       
!!!ENC2: Marcus Pearce (phrase markings and key designations)                   
!!!ENC3: Darrell Conklin (phrase markings and key designations)   
!!!END: 2002/04/10/
!!!EEV: 2004/06/05
!!!MPN: Mr. Ben Henneberry
!!!PPG: 60
!!!EFL: 30/152
!!!ARE: Canada; Nova Scotia
!!!verses: 11
!!!VTS: 3230881990
